X:2677
T:Polonäs efter Pehr Andersson
S:efter Pehr Andersson
B:Pehr Anderssons notbok, nr 92
B:http://www.smus.se/earkiv/fmk/browselarge.php?lang=sw&katalogid=Ma+1&bildnr=00031
O:Måstorp, Närke
R:Slängpolska
M:3/4
L:1/8
K:D
Fd Ec dD | Fd Ec dD | de/f/ gf ed | ce AG FD |
Fd Ec dD | Fd Ec dD | Bd ge fd | AB/c/ d4 ::
Aa B^g aA | ca B^g aA | Bd d2 A2 | BB/c/ dc/B/ A2 |
Bc de fg | ed/c/ d4 :|
(:musicend:)
(:music:)
